X: 23
T:Let Down The Blade
T:Let Down the Blade and Raise the Small Wheel
M:12/8
L:1/8
Q:160
C:Liam Kelly
S:Dervish
R:Slide
N:Named after a saying of Jarleth Mc Tiernan meaning "let's get the
N:session started"
K:G
|:FGA ABA ABA AFD|FGA AFD DEF G3|
FGA ABA ABA AFD|G2 A BAB cBA G3:|
|:G2 B BAB BAB cBA|G2 B BAG AFD FGA|
G2 B BAB BAB cBA|1GAB cde dBG cAF:|
2GAB cde dBG cAG||

